X:261
T:The Baltimore Salute
S:Svante Kvarnström
Z:robin.beech@mcgill.ca
R:reel
M:4/4
L:1/8
K:G
B2ge dBGA | B2GB AGEG | DGG2 GABd | gedB BAGA |
B2ge dBGA | B2GB AEGE | DGG2 GABd | gedB G3A  ::
BGG2 dGG2 | g3e dGG2  | g2fg edBd | eaag a2ga |
b2ab agef | g3e dBAB  | G3E DEge  | dBAB G3A  :|
